public/user-big.svg

<svg width="40" height="40" viewBox="0 0 40 40" fill="none" xmlns="http://www.w3.org/2000/svg">
<path d="M30.5117 20.3684C28.9993 21.7329 27.0369 22.4918 25 22.5001C24.5467 22.5001 24.105 22.4584 23.6734 22.3867C23.6284 22.3467 23.575 22.3184 23.53 22.2784C25.033 23.5242 26.2427 25.0862 27.0729 26.853C27.9032 28.6198 28.3335 30.5479 28.3334 32.5001C28.3334 32.9421 28.1578 33.366 27.8452 33.6786C27.5326 33.9911 27.1087 34.1667 26.6667 34.1667H36.6667C37.1087 34.1667 37.5326 33.9911 37.8452 33.6786C38.1578 33.366 38.3334 32.9421 38.3334 32.5001C38.3326 29.9403 37.5946 27.4348 36.2075 25.2834C34.8204 23.132 32.843 21.4256 30.5117 20.3684Z" fill="#6563FF"/>
<path d="M15.0001 22.4999C12.7899 22.4999 10.6703 21.6219 9.10752 20.0591C7.54472 18.4963 6.66675 16.3767 6.66675 14.1666C6.66675 11.9564 7.54472 9.83683 9.10752 8.27403C10.6703 6.71123 12.7899 5.83325 15.0001 5.83325C17.2102 5.83325 19.3298 6.71123 20.8926 8.27403C22.4554 9.83683 23.3334 11.9564 23.3334 14.1666C23.3334 16.3767 22.4554 18.4963 20.8926 20.0591C19.3298 21.6219 17.2102 22.4999 15.0001 22.4999Z" fill="#D8D8FF"/>
<path d="M15.0001 22.4999C12.7899 22.4999 10.6703 21.6219 9.10752 20.0591C7.54472 18.4963 6.66675 16.3767 6.66675 14.1666C6.66675 11.9564 7.54472 9.83683 9.10752 8.27403C10.6703 6.71123 12.7899 5.83325 15.0001 5.83325C17.2102 5.83325 19.3298 6.71123 20.8926 8.27403C22.4554 9.83683 23.3334 11.9564 23.3334 14.1666C23.3334 16.3767 22.4554 18.4963 20.8926 20.0591C19.3298 21.6219 17.2102 22.4999 15.0001 22.4999Z" fill="#D8D8FF"/>
<path d="M20.5117 20.3684C18.9993 21.7329 17.037 22.4918 15.0001 22.5001C12.9623 22.4946 10.9982 21.7367 9.48508 20.3717C7.15493 21.4292 5.17854 23.1353 3.7921 25.286C2.40567 27.4367 1.66782 29.9412 1.66675 32.5001C1.66675 32.9421 1.84234 33.366 2.1549 33.6786C2.46746 33.9911 2.89139 34.1667 3.33341 34.1667H26.6667C27.1088 34.1667 27.5327 33.9911 27.8453 33.6786C28.1578 33.366 28.3334 32.9421 28.3334 32.5001C28.3327 29.9403 27.5947 27.4348 26.2076 25.2834C24.8205 23.132 22.843 21.4256 20.5117 20.3684Z" fill="#B2B1FF"/>
<path d="M25 5.83325C23.1167 5.83325 21.3967 6.48325 20 7.53825C20.5795 7.97806 21.0989 8.49187 21.545 9.06659C21.9342 9.55792 22.2664 10.0919 22.535 10.6583C22.605 10.8099 22.6767 10.9599 22.7383 11.1166C22.9 11.5183 23.03 11.9333 23.1267 12.3666C23.1483 12.4666 23.1633 12.5716 23.1833 12.6749C23.2717 13.1583 23.3333 13.6549 23.3333 14.1666C23.3333 14.6916 23.2733 15.1999 23.1783 15.6949C23.1633 15.7683 23.1567 15.8449 23.14 15.9166C23.0459 16.3309 22.9194 16.7371 22.7617 17.1316C22.7017 17.2883 22.6433 17.4449 22.5733 17.5983C22.4333 17.8983 22.2733 18.1849 22.1017 18.4649C21.6683 19.1799 21.1333 19.8149 20.51 20.3699C21.6617 20.8933 22.7267 21.5716 23.6733 22.3866C24.1067 22.4583 24.5467 22.4999 25 22.4999C27.2101 22.4999 29.3298 21.6219 30.8926 20.0591C32.4554 18.4963 33.3333 16.3767 33.3333 14.1666C33.3333 11.9564 32.4554 9.83683 30.8926 8.27403C29.3298 6.71123 27.2101 5.83325 25 5.83325Z" fill="#8C8AFF"/>
</svg>

<svg xmlns="http://www.w3.org/2000/svg" width="40" height="40" fill="none" viewBox="0 0 40 40"><path fill="#6563ff" d="M30.512 20.368A8.28 8.28 0 0 1 25 22.5c-.453 0-.895-.042-1.327-.113-.045-.04-.098-.069-.143-.109A13.27 13.27 0 0 1 28.333 32.5a1.667 1.667 0 0 1-1.666 1.667h10a1.667 1.667 0 0 0 1.666-1.667 13.33 13.33 0 0 0-7.821-12.132"/><path fill="#d8d8ff" d="M15 22.5a8.333 8.333 0 1 1 0-16.667A8.333 8.333 0 0 1 15 22.5"/><path fill="#d8d8ff" d="M15 22.5a8.333 8.333 0 1 1 0-16.667A8.333 8.333 0 0 1 15 22.5"/><path fill="#b2b1ff" d="M20.512 20.368A8.28 8.28 0 0 1 15 22.5a8.27 8.27 0 0 1-5.515-2.128A13.33 13.33 0 0 0 1.667 32.5a1.667 1.667 0 0 0 1.666 1.667h23.334a1.667 1.667 0 0 0 1.666-1.667 13.33 13.33 0 0 0-7.821-12.132"/><path fill="#8c8aff" d="M25 5.833c-1.883 0-3.603.65-5 1.705.58.44 1.099.954 1.545 1.529.39.49.721 1.025.99 1.591.07.152.142.302.203.459q.243.6.389 1.25c.021.1.036.205.056.308.089.483.15.98.15 1.492 0 .525-.06 1.033-.155 1.528-.015.073-.021.15-.038.222q-.141.622-.378 1.215c-.06.156-.119.313-.189.466-.14.3-.3.587-.471.867a8.3 8.3 0 0 1-1.592 1.905 13.2 13.2 0 0 1 3.163 2.017c.434.071.874.113 1.327.113a8.334 8.334 0 0 0 0-16.667"/></svg>
